images/vehicles/truck-inbound.svg

<?xml version="1.0" standalone="no"?><!DOCTYPE svg PUBLIC "-//W3C//DTD SVG 1.1//EN" "http://www.w3.org/Graphics/SVG/1.1/DTD/svg11.dtd"><svg width="240px" height="288px" version="1.1" xmlns="http://www.w3.org/2000/svg" xmlns:xlink="http://www.w3.org/1999/xlink" xml:space="preserve" style="fill-rule:evenodd;clip-rule:evenodd;stroke-linejoin:round;stroke-miterlimit:1.41421;"><g><g id="truck-inbound" transform="matrix(1,0,0,1,12,0)"><g transform="matrix(1,0,0,1,-990.664,-575)"><path d="M1010.4,843.337l1.692,19.663l19.45,0l4.017,-19.874l-25.159,0.211Z" style="fill:#5c5e5f;fill-rule:nonzero;"/></g><g transform="matrix(1,0,0,1,-990.664,-575)"><path d="M1030.7,843.127l0.845,19.45l6.018,-19.45l-6.863,0Z" style="fill:#2a2b2a;fill-rule:nonzero;"/></g><g transform="matrix(1,0,0,1,-990.664,-575)"><path d="M1167.26,862.789l19.45,0.211l1.692,-19.452l-25.158,-0.211l4.016,19.452Z" style="fill:#5c5e5f;fill-rule:nonzero;"/></g><g transform="matrix(1,0,0,1,-990.664,-575)"><path d="M1161.16,843.337l6.02,19.663l0.846,-19.663l-6.866,0Z" style="fill:#2a2b2a;fill-rule:nonzero;"/></g><g transform="matrix(1,0,0,1,-990.664,-575)"><path d="M1188.53,843.534l-178.21,0l-7.188,-251.802l190.039,0.058l-4.641,251.744Z" style="fill:#c2bfbb;fill-rule:nonzero;"/></g><g transform="matrix(1,0,0,1,-990.664,-575)"><path d="M1007.93,759.725l-2.705,-94.757l-2.091,-73.235l190.039,0.057" style="fill:#d9d4cc;fill-rule:nonzero;"/></g><g transform="matrix(1,0,0,1,-990.664,-575)"><path d="M1188.53,843.534l-178.21,0l-3.611,-91.325l18.923,-82.977l142.539,0.558l22.703,83.436l-2.344,90.308Z" style="fill:#e4e2dc;fill-rule:nonzero;"/></g><g transform="matrix(1,0,0,1,-990.664,-575)"><path d="M1032.95,798.273l3.127,-9.402l-18.691,-0.036l3.043,9.479l12.521,-0.041Z" style="fill:#f9f5e3;fill-rule:nonzero;"/></g><g transform="matrix(1,0,0,1,-990.664,-575)"><path d="M1033.31,812.531l3.127,-9.402l-18.691,-0.036l3.043,9.479l12.521,-0.041Z" style="fill:#f9f5e3;fill-rule:nonzero;"/></g><g transform="matrix(1,0,0,1,-990.664,-575)"><path d="M1023.72,768.916l3.127,9.402l-18.691,0.036l-0.226,-9.459l15.79,0.021Z" style="fill:#f19e75;fill-rule:nonzero;"/></g><g transform="matrix(1,0,0,1,-990.664,-575)"><path d="M1144.29,817.465l-90.038,0l-2.5,-62.01l95.038,0l-2.5,62.01Z" style="fill:#2a2b2a;fill-rule:nonzero;"/></g><g transform="matrix(1,0,0,1,-990.664,-575)"><path d="M1177.45,798.273l3.127,-9.402l-18.691,-0.036l3.043,9.479l12.521,-0.041Z" style="fill:#f9f5e3;fill-rule:nonzero;"/></g><g transform="matrix(1,0,0,1,-990.664,-575)"><path d="M1177.81,812.531l3.127,-9.402l-18.691,-0.036l3.043,9.479l12.521,-0.041Z" style="fill:#f9f5e3;fill-rule:nonzero;"/></g><g transform="matrix(1,0,0,1,-990.664,-575)"><path d="M1190.46,768.812l-0.327,9.59l-18.692,0.035l3.043,-9.479l15.976,-0.146Z" style="fill:#f19e75;fill-rule:nonzero;"/></g><g transform="matrix(1,0,0,1,-990.664,-575)"><path d="M1188.53,843.534l-178.378,-0.197l-0.665,-20.871l179.59,0l-0.547,21.068Z" style="fill:#f7f5f0;fill-rule:nonzero;"/></g><g transform="matrix(1,0,0,1,-990.664,-575)"><path d="M1170.95,680.004l32.452,-1.979l0.211,7.822l4.229,-0.633l-0.023,-13.261l-37.989,3.936l1.12,4.115Z" style="fill:#2a2b2a;fill-rule:nonzero;"/></g><g transform="matrix(1,0,0,1,-990.664,-575)"><path d="M1211.01,684.578l-0.846,32.348l-15.01,2.115l-2.749,-31.502l18.605,-2.961Z" style="fill:#2a2b2a;fill-rule:nonzero;"/></g><g transform="matrix(1,0,0,1,-990.664,-575)"><g opacity="0.300003"><path d="M1211.01,684.685l-0.211,7.505l-17.972,0.105l-0.422,-4.756l18.605,-2.854Z" style="fill:#5c5e5f;fill-rule:nonzero;"/></g></g><g transform="matrix(1,0,0,1,-990.664,-575)"><path d="M1023.23,679.781l-29.303,-2.002l-0.211,7.821l-4.228,-0.632l0.022,-13.261l34.742,3.587l-1.022,4.487Z" style="fill:#2a2b2a;fill-rule:nonzero;"/></g><g transform="matrix(1,0,0,1,-990.664,-575)"><path d="M986.563,684.332l0.846,32.348l15.01,2.115l2.749,-31.502l-18.605,-2.961Z" style="fill:#2a2b2a;fill-rule:nonzero;"/></g><g transform="matrix(1,0,0,1,-990.664,-575)"><g opacity="0.300003"><path d="M986.313,684.438l0.212,7.505l17.971,0.105l0.422,-4.756l-18.605,-2.854Z" style="fill:#5c5e5f;fill-rule:nonzero;"/></g></g><g transform="matrix(1,0,0,1,-990.664,-575)"><path d="M1136.49,770.365l-1.488,3.041l-71.91,0.043l-2.002,-3.303l75.4,0.219Z" style="fill:#5d5f60;fill-rule:nonzero;"/></g><g transform="matrix(1,0,0,1,-990.664,-575)"><path d="M1136.49,785.365l-1.488,3.041l-71.91,0.043l-2.002,-3.303l75.4,0.219Z" style="fill:#5d5f60;fill-rule:nonzero;"/></g><g transform="matrix(1,0,0,1,-990.664,-575)"><path d="M1136.49,800.365l-1.488,3.041l-71.91,0.043l-2.002,-3.303l75.4,0.219Z" style="fill:#5d5f60;fill-rule:nonzero;"/></g><g transform="matrix(1,0,0,1,-990.664,-575)"><path d="M1018.13,740.789l160.044,0l-16.282,-61.807l-128.516,-0.234l-15.246,62.041Z" style="fill:#313257;fill-rule:nonzero;"/></g><g transform="matrix(1,0,0,1,-990.664,-575)"><clipPath id="tag1"><path d="M1018.13,740.789l160.045,0l-16.282,-61.806l-128.517,-0.234l-15.246,62.04Z"/></clipPath><g clip-path="url(#tag1)"><g opacity="0.300003"><path d="M1117.64,645.312l-168.551,169.653l62.188,-169.649l106.363,-0.004Z" style="fill:#0c1825;fill-rule:nonzero;"/></g><g opacity="0.300003"><path d="M1190.88,769.298l-26.557,-113.021l-99.996,95.487l-1.248,6.551l127.801,10.983Z" style="fill:#0c1825;fill-rule:nonzero;"/></g></g></g><g transform="matrix(1,0,0,1,-990.664,-575)"><path d="M1074.35,740.789l6.165,0l61.623,-61.843l-6.02,-0.011l-61.768,61.854Z" style="fill:#4a4b73;fill-rule:nonzero;"/></g></g></g></svg>

<?xml version="1.0" encoding="UTF-8" standalone="no"?>
<!DOCTYPE svg PUBLIC "-//W3C//DTD SVG 1.1//EN" "http://www.w3.org/Graphics/SVG/1.1/DTD/svg11.dtd">
<svg width="100%" height="100%" viewBox="0 0 300 360" version="1.1" xmlns="http://www.w3.org/2000/svg" xmlns:xlink="http://www.w3.org/1999/xlink" xml:space="preserve" xmlns:serif="http://www.serif.com/" style="fill-rule:evenodd;clip-rule:evenodd;stroke-linejoin:round;stroke-miterlimit:2;">
    <g id="truck-inbound" transform="matrix(1.27,0,0,1.27,12.84,-5.76)">
        <g transform="matrix(1,0,0,1,-990.664,-575)">
            <path d="M1010.4,843.337L1012.1,863L1031.55,863L1035.56,843.126L1010.4,843.337Z" style="fill:rgb(91,93,94);fill-rule:nonzero;"/>
        </g>
        <g transform="matrix(1,0,0,1,-990.664,-575)">
            <path d="M1030.7,843.127L1031.55,862.577L1037.56,843.127L1030.7,843.127Z" style="fill:rgb(41,43,41);fill-rule:nonzero;"/>
        </g>
        <g transform="matrix(1,0,0,1,-990.664,-575)">
            <path d="M1167.26,862.79L1186.71,863.001L1188.4,843.549L1163.25,843.338L1167.26,862.79Z" style="fill:rgb(91,93,94);fill-rule:nonzero;"/>
        </g>
        <g transform="matrix(1,0,0,1,-990.664,-575)">
            <path d="M1161.16,843.337L1167.18,863L1168.03,843.337L1161.16,843.337Z" style="fill:rgb(41,43,41);fill-rule:nonzero;"/>
        </g>
        <g transform="matrix(1,0,0,1,-990.664,-575)">
            <path d="M1188.53,843.534L1010.32,843.534L1003.13,591.732L1193.17,591.79L1188.53,843.534Z" style="fill:rgb(193,190,187);fill-rule:nonzero;"/>
        </g>
        <g transform="matrix(1,0,0,1,-990.664,-575)">
            <path d="M1007.93,759.725L1005.22,664.968L1003.13,591.733L1193.17,591.79" style="fill:rgb(216,211,203);fill-rule:nonzero;"/>
        </g>
        <g transform="matrix(1,0,0,1,-990.664,-575)">
            <path d="M1188.53,843.534L1010.32,843.534L1006.71,752.209L1025.63,669.232L1168.17,669.79L1190.88,753.226L1188.53,843.534Z" style="fill:rgb(228,225,219);fill-rule:nonzero;"/>
        </g>
        <g transform="matrix(1,0,0,1,-990.664,-575)">
            <path d="M1032.95,798.273L1036.08,788.871L1017.39,788.835L1020.43,798.314L1032.95,798.273Z" style="fill:rgb(248,244,227);fill-rule:nonzero;"/>
        </g>
        <g transform="matrix(1,0,0,1,-990.664,-575)">
            <path d="M1033.31,812.531L1036.44,803.129L1017.75,803.093L1020.79,812.572L1033.31,812.531Z" style="fill:rgb(248,244,227);fill-rule:nonzero;"/>
        </g>
        <g transform="matrix(1,0,0,1,-990.664,-575)">
            <path d="M1023.72,768.916L1026.85,778.318L1008.15,778.354L1007.93,768.895L1023.72,768.916Z" style="fill:rgb(240,157,116);fill-rule:nonzero;"/>
        </g>
        <g transform="matrix(1,0,0,1,-990.664,-575)">
            <path d="M1144.29,817.465L1054.26,817.465L1051.76,755.455L1146.79,755.455L1144.29,817.465Z" style="fill:rgb(41,43,41);fill-rule:nonzero;"/>
        </g>
        <g transform="matrix(1,0,0,1,-990.664,-575)">
            <path d="M1177.45,798.273L1180.58,788.871L1161.89,788.835L1164.93,798.314L1177.45,798.273Z" style="fill:rgb(248,244,227);fill-rule:nonzero;"/>
        </g>
        <g transform="matrix(1,0,0,1,-990.664,-575)">
            <path d="M1177.81,812.531L1180.94,803.129L1162.25,803.093L1165.29,812.572L1177.81,812.531Z" style="fill:rgb(248,244,227);fill-rule:nonzero;"/>
        </g>
        <g transform="matrix(1,0,0,1,-990.664,-575)">
            <path d="M1190.46,768.812L1190.13,778.402L1171.44,778.437L1174.48,768.958L1190.46,768.812Z" style="fill:rgb(240,157,116);fill-rule:nonzero;"/>
        </g>
        <g transform="matrix(1,0,0,1,-990.664,-575)">
            <path d="M1188.53,843.534L1010.15,843.337L1009.49,822.466L1189.08,822.466L1188.53,843.534Z" style="fill:rgb(245,245,239);fill-rule:nonzero;"/>
        </g>
        <g transform="matrix(1,0,0,1,-990.664,-575)">
            <path d="M1170.95,680.004L1203.4,678.025L1203.61,685.847L1207.84,685.214L1207.82,671.953L1169.83,675.889L1170.95,680.004Z" style="fill:rgb(41,43,41);fill-rule:nonzero;"/>
        </g>
        <g transform="matrix(1,0,0,1,-990.664,-575)">
            <path d="M1211.02,684.578L1210.17,716.926L1195.16,719.041L1192.41,687.539L1211.02,684.578Z" style="fill:rgb(41,43,41);fill-rule:nonzero;"/>
        </g>
        <g transform="matrix(1,0,0,1,-990.664,-575)">
            <g opacity="0.3">
                <path d="M1211.02,684.685L1210.8,692.19L1192.83,692.295L1192.41,687.539L1211.02,684.685Z" style="fill:rgb(91,93,94);fill-rule:nonzero;"/>
            </g>
        </g>
        <g transform="matrix(1,0,0,1,-990.664,-575)">
            <path d="M1023.23,679.781L993.925,677.779L993.713,685.6L989.486,684.968L989.507,671.707L1024.25,675.294L1023.23,679.781Z" style="fill:rgb(41,43,41);fill-rule:nonzero;"/>
        </g>
        <g transform="matrix(1,0,0,1,-990.664,-575)">
            <path d="M986.564,684.332L987.41,716.68L1002.42,718.795L1005.17,687.293L986.564,684.332Z" style="fill:rgb(41,43,41);fill-rule:nonzero;"/>
        </g>
        <g transform="matrix(1,0,0,1,-990.664,-575)">
            <g opacity="0.3">
                <path d="M986.314,684.439L986.526,691.944L1004.5,692.049L1004.92,687.293L986.314,684.439Z" style="fill:rgb(91,93,94);fill-rule:nonzero;"/>
            </g>
        </g>
        <g transform="matrix(1,0,0,1,-990.664,-575)">
            <path d="M1136.49,770.365L1135.01,773.406L1063.1,773.449L1061.09,770.146L1136.49,770.365Z" style="fill:rgb(92,95,96);fill-rule:nonzero;"/>
        </g>
        <g transform="matrix(1,0,0,1,-990.664,-575)">
            <path d="M1136.49,785.365L1135.01,788.406L1063.1,788.449L1061.09,785.146L1136.49,785.365Z" style="fill:rgb(92,95,96);fill-rule:nonzero;"/>
        </g>
        <g transform="matrix(1,0,0,1,-990.664,-575)">
            <path d="M1136.49,800.365L1135.01,803.406L1063.1,803.449L1061.09,800.146L1136.49,800.365Z" style="fill:rgb(92,95,96);fill-rule:nonzero;"/>
        </g>
        <g transform="matrix(1,0,0,1,-990.664,-575)">
            <path d="M1018.13,740.79L1178.17,740.79L1161.89,678.983L1033.38,678.748L1018.13,740.79Z" style="fill:rgb(49,50,86);fill-rule:nonzero;"/>
        </g>
        <g transform="matrix(1,0,0,1,-990.664,-575)">
            <path d="M1018.13,740.789L1178.17,740.789L1161.89,678.983L1033.38,678.749L1018.13,740.789Z" style="fill:none;"/>
            <clipPath id="_clip1">
                <path d="M1018.13,740.789L1178.17,740.789L1161.89,678.983L1033.38,678.749L1018.13,740.789Z"/>
            </clipPath>
            <g clip-path="url(#_clip1)">
                <g opacity="0.3">
                    <path d="M1117.64,645.312L949.09,814.965L1011.28,645.316L1117.64,645.312Z" style="fill:rgb(12,24,37);fill-rule:nonzero;"/>
                </g>
                <g opacity="0.3">
                    <path d="M1190.88,769.298L1164.32,656.277L1064.32,751.764L1063.07,758.315L1190.88,769.298Z" style="fill:rgb(12,24,37);fill-rule:nonzero;"/>
                </g>
            </g>
        </g>
        <g transform="matrix(1,0,0,1,-990.664,-575)">
            <path d="M1074.35,740.79L1080.52,740.79L1142.14,678.947L1136.12,678.935L1074.35,740.79Z" style="fill:rgb(73,75,114);fill-rule:nonzero;"/>
        </g>
    </g>
</svg>
